img/vector/shop.svg

<svg width="49" height="48" viewBox="0 0 49 48" fill="none" xmlns="http://www.w3.org/2000/svg">
<g clip-path="url(#clip0_1_406)">
<g clip-path="url(#clip1_1_406)">
<path opacity="0.15" d="M43.65 13.7502H4.35007C4.33207 13.7502 4.32007 13.7621 4.32007 13.7799V19.1851C4.32007 22.7294 7.26007 25.6039 10.8781 25.6039C13.3201 25.6039 15.4501 24.3 16.5841 22.3619C16.7581 22.0597 17.0881 21.87 17.4421 21.87C17.7961 21.87 18.1201 22.0597 18.3001 22.3619C19.4281 24.3 21.5581 25.6039 24.0001 25.6039C26.4481 25.6039 28.584 24.2941 29.706 22.3501C29.88 22.0537 30.198 21.87 30.54 21.87H30.576C30.924 21.87 31.236 22.0537 31.41 22.3501C32.538 24.2941 34.674 25.6039 37.122 25.6039C40.74 25.6039 43.68 22.7294 43.68 19.1851V13.7799C43.68 13.7621 43.668 13.7502 43.65 13.7502Z" fill="#00A0C1"/>
<path d="M46.2 9.48885V1.89659C46.2 0.847537 45.342 0 44.28 0H3.72003C2.65804 0 1.80004 0.847537 1.80004 1.89659V9.48885C0.798037 9.54812 3.71756e-05 10.372 3.71756e-05 11.3795V19.1851C-0.00380525 20.6197 0.290253 22.0398 0.864037 23.3576C1.12204 23.9622 1.44004 24.5311 1.80004 25.0705V45.518C1.80004 46.5612 2.65804 47.4146 3.72003 47.4146H44.28C45.342 47.4146 46.2 46.5671 46.2 45.518V25.0705C46.5657 24.5298 46.879 23.9563 47.136 23.3576C47.706 22.036 48 20.6313 48 19.1851V11.3795C48 10.372 47.202 9.54812 46.2 9.48885ZM6.12003 4.26732H41.88V9.48293H6.12003V4.26732ZM27.84 43.1532H20.16V36.9834H27.84V43.1532ZM41.904 43.1532H31.68V35.0868C31.68 34.0378 30.822 33.1902 29.76 33.1902H18.24C17.178 33.1902 16.32 34.0378 16.32 35.0868V43.1532H6.12003V28.7985C6.29403 28.8814 6.47403 28.9644 6.66003 29.0355C7.99803 29.5927 9.42003 29.8712 10.884 29.8712C12.348 29.8712 13.764 29.5927 15.108 29.0355C15.936 28.6918 16.716 28.2532 17.43 27.7257C17.442 27.7198 17.454 27.7198 17.466 27.7257C18.1822 28.2554 18.9622 28.6954 19.788 29.0355C21.126 29.5927 22.548 29.8712 24.012 29.8712C25.476 29.8712 26.892 29.5927 28.236 29.0355C29.064 28.6918 29.844 28.2532 30.558 27.7257C30.57 27.7198 30.582 27.7198 30.594 27.7257C31.3102 28.2554 32.0902 28.6954 32.916 29.0355C34.254 29.5927 35.676 29.8712 37.14 29.8712C38.604 29.8712 40.02 29.5927 41.364 29.0355C41.544 28.9585 41.724 28.8814 41.904 28.7985V43.1532ZM43.68 19.1851C43.68 22.7294 40.74 25.6039 37.122 25.6039C34.674 25.6039 32.538 24.2941 31.41 22.3501C31.236 22.0537 30.924 21.87 30.576 21.87H30.54C30.198 21.87 29.88 22.0537 29.706 22.3501C29.1304 23.3417 28.2992 24.1652 27.297 24.7367C26.2948 25.3082 25.1572 25.6074 24 25.6039C21.558 25.6039 19.428 24.3 18.3 22.3619C18.12 22.0597 17.796 21.87 17.442 21.87C17.088 21.87 16.758 22.0597 16.584 22.3619C16.005 23.3498 15.1728 24.1695 14.1711 24.7387C13.1694 25.3078 12.0336 25.6062 10.878 25.6039C7.26003 25.6039 4.32003 22.7294 4.32003 19.1851V13.7799C4.32003 13.7621 4.33203 13.7502 4.35003 13.7502H43.65C43.668 13.7502 43.68 13.7621 43.68 13.7799V19.1851Z" fill="#00A0C1"/>
</g>
</g>
<defs>
<clipPath id="clip0_1_406">
<rect width="48" height="48" fill="white" transform="translate(0.5)"/>
</clipPath>
<clipPath id="clip1_1_406">
<rect width="48" height="47.4146" fill="white"/>
</clipPath>
</defs>
</svg>

<svg width="49" height="48" fill="none" xmlns="http://www.w3.org/2000/svg"><g clip-path="url(#a)"><g clip-path="url(#b)" fill="#00A0C1"><path opacity=".15" d="M43.65 13.75H4.35c-.018 0-.03.012-.03.03v5.405c0 3.544 2.94 6.419 6.558 6.419a6.593 6.593 0 0 0 5.706-3.242.993.993 0 0 1 1.716 0 6.576 6.576 0 0 0 5.7 3.242c2.448 0 4.584-1.31 5.706-3.254a.97.97 0 0 1 .834-.48h.036c.348 0 .66.184.834.48a6.586 6.586 0 0 0 5.712 3.254c3.618 0 6.558-2.875 6.558-6.419V13.78c0-.018-.012-.03-.03-.03Z"/><path d="M46.2 9.489V1.897C46.2.847 45.342 0 44.28 0H3.72C2.658 0 1.8.848 1.8 1.897v7.592c-1.002.06-1.8.883-1.8 1.89v7.806a10.38 10.38 0 0 0 .864 4.173c.258.604.576 1.173.936 1.712v20.448a1.91 1.91 0 0 0 1.92 1.897h40.56c1.062 0 1.92-.848 1.92-1.897V25.07c.366-.54.679-1.114.936-1.712.57-1.322.864-2.727.864-4.173V11.38a1.905 1.905 0 0 0-1.8-1.891ZM6.12 4.267h35.76v5.216H6.12V4.267Zm21.72 38.886h-7.68v-6.17h7.68v6.17Zm14.064 0H31.68v-8.066a1.906 1.906 0 0 0-1.92-1.897H18.24c-1.062 0-1.92.848-1.92 1.897v8.066H6.12V28.8c.174.082.354.165.54.236a10.93 10.93 0 0 0 4.224.836 11.004 11.004 0 0 0 6.546-2.146.039.039 0 0 1 .036 0c.716.53 1.496.97 2.322 1.31a10.93 10.93 0 0 0 4.224.836 11.004 11.004 0 0 0 6.546-2.146.039.039 0 0 1 .036 0c.716.53 1.496.97 2.322 1.31a10.93 10.93 0 0 0 4.224.836c1.464 0 2.88-.278 4.224-.835.18-.078.36-.155.54-.238v14.355Zm1.776-23.968c0 3.544-2.94 6.419-6.558 6.419a6.586 6.586 0 0 1-5.712-3.254.963.963 0 0 0-.834-.48h-.036a.97.97 0 0 0-.834.48 6.515 6.515 0 0 1-2.409 2.387 6.617 6.617 0 0 1-3.297.867 6.576 6.576 0 0 1-5.7-3.242.993.993 0 0 0-1.716 0 6.539 6.539 0 0 1-2.413 2.377 6.641 6.641 0 0 1-3.293.865c-3.618 0-6.558-2.875-6.558-6.419V13.78c0-.018.012-.03.03-.03h39.3c.018 0 .03.012.03.03v5.405Z"/></g></g><defs><clipPath id="a"><path fill="#fff" transform="translate(.5)" d="M0 0h48v48H0z"/></clipPath><clipPath id="b"><path fill="#fff" d="M0 0h48v47.415H0z"/></clipPath></defs></svg>
